symbols/web/pedal_bike/materialsymbolsrounded/pedal_bike_wght500grad200fill1_48px.svg

<svg xmlns="http://www.w3.org/2000/svg" height="48" width="48"><path d="M9.65 40.25q-4.2 0-7.05-2.85-2.85-2.85-2.85-7.1 0-4.2 2.875-7.05Q5.5 20.4 9.7 20.4q3.6 0 6.35 2.275 2.75 2.275 3.3 5.825h2.25l-4.05-11.4h-2q-.7 0-1.2-.475t-.5-1.225q0-.65.5-1.125t1.2-.475H22q.65 0 1.125.475t.475 1.175q0 .65-.4 1.125t-1.15.525h-1l1.2 3.3H33l-3.5-9.35h-3.55q-.75 0-1.225-.475-.475-.475-.475-1.175 0-.7.475-1.175.475-.475 1.225-.475h3.35q1.3 0 2.175.55.875.55 1.275 1.75L36.5 20.4h1.85q4.15 0 7.025 2.85t2.875 6.95q0 4.15-2.875 7.1-2.875 2.95-7.025 2.95-3.7 0-6.425-2.425Q29.2 35.4 28.55 31.8h-9.2q-.55 3.65-3.275 6.05-2.725 2.4-6.425 2.4Zm15.4-11.75h3.55q.2-1.1.75-2.425.55-1.325 1.4-2.375H23.4Zm13.1 1.35q.65-.25.9-.85t.05-1.25l-1.35-4.05-3.3 1.05 1.6 4.15q.25.65.825.925t1.275.025ZM11.8 31.8h4.25v-3.3H11.8q-.7 0-1.2.475t-.5 1.175q0 .7.5 1.175.5.475 1.2.475Z"/></svg>

<svg xmlns="http://www.w3.org/2000/svg" height="48" width="48"><path d="M9.65 40.25Q5.45 40.25 2.6 37.4Q-0.25 34.55 -0.25 30.3Q-0.25 26.1 2.625 23.25Q5.5 20.4 9.7 20.4Q13.3 20.4 16.05 22.675Q18.8 24.95 19.35 28.5H21.6L17.55 17.1H15.55Q14.85 17.1 14.35 16.625Q13.85 16.15 13.85 15.4Q13.85 14.75 14.35 14.275Q14.85 13.8 15.55 13.8H22Q22.65 13.8 23.125 14.275Q23.6 14.75 23.6 15.45Q23.6 16.1 23.2 16.575Q22.8 17.05 22.05 17.1H21.05L22.25 20.4H33L29.5 11.05Q29.5 11.05 29.5 11.05Q29.5 11.05 29.5 11.05H25.95Q25.2 11.05 24.725 10.575Q24.25 10.1 24.25 9.4Q24.25 8.7 24.725 8.225Q25.2 7.75 25.95 7.75H29.3Q30.6 7.75 31.475 8.3Q32.35 8.85 32.75 10.05L36.5 20.4H38.35Q42.5 20.4 45.375 23.25Q48.25 26.1 48.25 30.2Q48.25 34.35 45.375 37.3Q42.5 40.25 38.35 40.25Q34.65 40.25 31.925 37.825Q29.2 35.4 28.55 31.8H19.35Q18.8 35.45 16.075 37.85Q13.35 40.25 9.65 40.25ZM25.05 28.5H28.6Q28.8 27.4 29.35 26.075Q29.9 24.75 30.75 23.7H23.4ZM38.15 29.85Q38.8 29.6 39.05 29Q39.3 28.4 39.1 27.75L37.75 23.7L34.45 24.75L36.05 28.9Q36.3 29.55 36.875 29.825Q37.45 30.1 38.15 29.85ZM11.8 31.8H16.05V28.5H11.8Q11.1 28.5 10.6 28.975Q10.1 29.45 10.1 30.15Q10.1 30.85 10.6 31.325Q11.1 31.8 11.8 31.8Z"/></svg>
